src/standard/data.svg

<svg xmlns="http://www.w3.org/2000/svg" viewBox="0 0 36 36">
  <path d="M16.62 12.5a4.12 4.12 0 1 0-4.12 4.12 4.13 4.13 0 0 0 4.12-4.12Zm-4.12 2.88a2.88 2.88 0 1 1 2.88-2.88 2.88 2.88 0 0 1-2.88 2.88Zm5 4a4.12 4.12 0 1 0 4.12 4.12 4.13 4.13 0 0 0-4.12-4.12Zm0 7a2.88 2.88 0 1 1 2.88-2.88 2.88 2.88 0 0 1-2.88 2.88ZM31.62 12.5a4.12 4.12 0 1 0-4.12 4.12 4.13 4.13 0 0 0 4.12-4.12Zm-4.12 2.88a2.88 2.88 0 1 1 2.88-2.88 2.88 2.88 0 0 1-2.88 2.88ZM5 8.38a.61.61 0 0 0-.62.62v7a.62.62 0 0 0 1.24 0V9A.61.61 0 0 0 5 8.38Zm0 11a.61.61 0 0 0-.62.62v7a.62.62 0 0 0 1.24 0v-7a.61.61 0 0 0-.62-.62Zm5 0a.61.61 0 0 0-.62.62v7a.62.62 0 0 0 1.24 0v-7a.61.61 0 0 0-.62-.62Zm15 0a.61.61 0 0 0-.62.62v7a.62.62 0 0 0 1.24 0v-7a.61.61 0 0 0-.62-.62Zm5 0a.61.61 0 0 0-.62.62v7a.62.62 0 0 0 1.24 0v-7a.61.61 0 0 0-.62-.62Zm-10-2.76a.61.61 0 0 0 .62-.62V9a.62.62 0 0 0-1.24 0v7a.61.61 0 0 0 .62.62Z"/>
</svg>

<svg id="bb120e8b-c39b-498f-957f-bcf50f781912" data-name="Icon" xmlns="http://www.w3.org/2000/svg" viewBox="0 0 36 36">
  <title>Data icon - Black</title>
<desc>software and technologies</desc>
<metadata><?xpacket begin="﻿" id="W5M0MpCehiHzreSzNTczkc9d"?>
<x:xmpmeta xmlns:x="adobe:ns:meta/" x:xmptk="Adobe XMP Core 8.0-c001 1.000000, 0000/00/00-00:00:00        ">
   <rdf:RDF xmlns:rdf="http://www.w3.org/1999/02/22-rdf-syntax-ns#">
      <rdf:Description rdf:about=""
            xmlns:xmp="http://ns.adobe.com/xap/1.0/"
            xmlns:dc="http://purl.org/dc/elements/1.1/"
            xmlns:cq="http://www.day.com/jcr/cq/1.0"
            xmlns:tiff="http://ns.adobe.com/tiff/1.0/">
         <xmp:rhcc-effective-on>2023-12-08T17:43:13.797Z</xmp:rhcc-effective-on>
         <xmp:rhcc-metadata-complete-moderator>pending</xmp:rhcc-metadata-complete-moderator>
         <xmp:rhcc-translation-id>TRA6917057e-95f5-41b4-9fca-eab705b6d06c</xmp:rhcc-translation-id>
         <xmp:brand-content-type>Icon</xmp:brand-content-type>
         <xmp:CreateDate>2023-12-08T17:43:13.797Z</xmp:CreateDate>
         <xmp:rhcc-effective-on-set-on-upload>true</xmp:rhcc-effective-on-set-on-upload>
         <xmp:rhcc-metadata-complete-uploader>pending</xmp:rhcc-metadata-complete-uploader>
         <xmp:rhcc-file-last-modified>2023-12-08T17:44:10.395Z</xmp:rhcc-file-last-modified>
         <xmp:rhcc-audience>rhcc-audience:internal</xmp:rhcc-audience>
         <xmp:rhcc-rights-restricted>no</xmp:rhcc-rights-restricted>
         <xmp:brand-content-subtype>Icon</xmp:brand-content-subtype>
         <xmp:rhcc-derivative-id>DER6917057e-95f5-41b4-9fca-eab705b6d06c</xmp:rhcc-derivative-id>
         <xmp:brand-logo-color>Black</xmp:brand-logo-color>
         <xmp:rhcc-notify-portal-subscribers-on-change>yes</xmp:rhcc-notify-portal-subscribers-on-change>
         <dc:format>image/svg+xml</dc:format>
         <dc:modified>2024-02-09T20:16:33.236Z</dc:modified>
         <dc:title>
            <rdf:Alt>
               <rdf:li xml:lang="x-default">Data icon - Black</rdf:li>
            </rdf:Alt>
         </dc:title>
         <dc:description>
            <rdf:Alt>
               <rdf:li xml:lang="x-default">software and technologies</rdf:li>
            </rdf:Alt>
         </dc:description>
         <cq:lastReplicationAction_scene7>Activate</cq:lastReplicationAction_scene7>
         <cq:lastReplicationAction_publish>Activate</cq:lastReplicationAction_publish>
         <cq:lastReplicated_publish>2024-02-09T21:53:35.468Z</cq:lastReplicated_publish>
         <cq:lastReplicatedBy>workflow-process-service</cq:lastReplicatedBy>
         <cq:lastReplicationAction>Activate</cq:lastReplicationAction>
         <cq:lastReplicatedBy_publish>workflow-process-service</cq:lastReplicatedBy_publish>
         <cq:isDelivered>true</cq:isDelivered>
         <cq:lastReplicated>2024-02-09T21:53:35.468Z</cq:lastReplicated>
         <cq:lastReplicatedBy_scene7>workflow-process-service</cq:lastReplicatedBy_scene7>
         <cq:lastReplicated_scene7>2024-02-09T21:53:35.468Z</cq:lastReplicated_scene7>
         <tiff:ImageLength>36</tiff:ImageLength>
         <tiff:ImageWidth>36</tiff:ImageWidth>
      </rdf:Description>
   </rdf:RDF>
</x:xmpmeta>
                                                                                                    
                                                                                                    
                                                                                                    
                                                                                                    
                                                                                                    
                                                                                                    
                                                                                                    
                                                                                                    
                                                                                                    
                                                                                                    
                                 
<?xpacket end="w"?></metadata>
<g>
    <path d="M16.62,12.5a4.12,4.12,0,1,0-4.12,4.12A4.13,4.13,0,0,0,16.62,12.5ZM12.5,15.38a2.88,2.88,0,1,1,2.88-2.88A2.88,2.88,0,0,1,12.5,15.38Z"/>
    <path d="M17.5,19.38a4.12,4.12,0,1,0,4.12,4.12A4.13,4.13,0,0,0,17.5,19.38Zm0,7a2.88,2.88,0,1,1,2.88-2.88A2.88,2.88,0,0,1,17.5,26.38Z"/>
    <path d="M31.62,12.5a4.12,4.12,0,1,0-4.12,4.12A4.13,4.13,0,0,0,31.62,12.5ZM27.5,15.38a2.88,2.88,0,1,1,2.88-2.88A2.88,2.88,0,0,1,27.5,15.38Z"/>
    <path d="M5,8.38A.61.61,0,0,0,4.38,9v7a.62.62,0,0,0,1.24,0V9A.61.61,0,0,0,5,8.38Z"/>
    <path d="M5,19.38a.61.61,0,0,0-.62.62v7a.62.62,0,0,0,1.24,0V20A.61.61,0,0,0,5,19.38Z"/>
    <path d="M10,19.38a.61.61,0,0,0-.62.62v7a.62.62,0,0,0,1.24,0V20A.61.61,0,0,0,10,19.38Z"/>
    <path d="M25,19.38a.61.61,0,0,0-.62.62v7a.62.62,0,0,0,1.24,0V20A.61.61,0,0,0,25,19.38Z"/>
    <path d="M30,19.38a.61.61,0,0,0-.62.62v7a.62.62,0,0,0,1.24,0V20A.61.61,0,0,0,30,19.38Z"/>
    <path d="M20,16.62a.61.61,0,0,0,.62-.62V9a.62.62,0,0,0-1.24,0v7A.61.61,0,0,0,20,16.62Z"/>
  </g>
</svg>
